icons/icn_papelera.svg

<svg width="24" xmlns="http://www.w3.org/2000/svg" height="24" id="screenshot-99ce6fa3-641d-80f7-8006-51839944738d" viewBox="0 0 24 24" xmlns:xlink="http://www.w3.org/1999/xlink" fill="none" version="1.1"><g id="shape-99ce6fa3-641d-80f7-8006-51839944738d"><g class="frame-container-wrapper"><g class="frame-container-blur"><g class="frame-container-shadows"><g fill="none"><g class="fills" id="fills-99ce6fa3-641d-80f7-8006-51839944738d"><rect rx="0" ry="0" x="0" y="0" width="24" height="24.000000000000455" transform="matrix(1, 0, 0, 1, 0, 0)" class="frame-background"/></g><g class="frame-children"><g id="shape-99ce6fa3-641d-80f7-8006-518388320a9f" width="24" height="24" version="1.1" rx="0" ry="0" style="fill: rgb(0, 0, 0);"><g id="shape-99ce6fa3-641d-80f7-8006-518388388ec5" style="opacity: 1;"><g class="fills" id="fills-99ce6fa3-641d-80f7-8006-518388388ec5"><path d="M7.995207786560059,2.2674262523651123C7.592619895935059,2.2691352367401123,7.266936302185059,2.5951850414276123,7.265227317810059,2.9978950023651123L7.265227317810059,6.275360584259033L2.7061452865600586,6.275360584259033C2.3096609115600586,6.279144763946533,1.989592432975769,6.601288318634033,1.989836573600769,6.998016834259033C1.989592432975769,7.394745349884033,2.3096609115600586,7.718719959259033,2.7061452865600586,7.722626209259033L4.247893333435059,7.722626209259033L4.232512474060059,21.009857177734375C4.231535911560059,21.409759521484375,4.556975364685059,21.733367919921875,4.956633567810059,21.732513427734375L19.000822067260742,21.732513427734375C19.400480270385742,21.733367919921875,19.723966598510742,21.409759521484375,19.722990036010742,21.009857177734375L19.738370895385742,7.722626209259033L21.286222457885742,7.722626209259033C21.685392379760742,7.722748279571533,22.010343551635742,7.397552967071533,22.010343551635742,6.998016834259033C22.010343551635742,6.598358631134033,21.685392379760742,6.275116443634033,21.286222457885742,6.275360584259033L16.721281051635742,6.275360584259033L16.721281051635742,2.9978950023651123C16.719572067260742,2.5951850414276123,16.393644332885742,2.2691352367401123,15.991301536560059,2.2674262523651123ZM8.725188255310059,3.7361762523651123L15.261321067810059,3.7361762523651123L15.261321067810059,6.275360584259033L8.725188255310059,6.275360584259033ZM5.692229270935059,7.722626209259033L18.292325973510742,7.722626209259033L18.276700973510742,20.293060302734375L5.678557395935059,20.293060302734375Z" style="display: inline; stroke-linecap: round; stroke-linejoin: round; fill: rgb(0, 0, 0); fill-opacity: 1;"/></g></g><g id="shape-99ce6fa3-641d-80f7-8006-518388392a7b" style="opacity: 1;"><g class="fills" id="fills-99ce6fa3-641d-80f7-8006-518388392a7b"><path d="M9.993742942810059,10.268647193908691C9.590910911560059,10.270112037658691,9.264739036560059,10.596405982971191,9.263274192810059,10.999482154846191L9.263274192810059,17.001068115234375C9.264739036560059,17.404144287109375,9.590910911560059,17.730438232421875,9.993742942810059,17.731903076171875C10.396330833435059,17.730438232421875,10.722502708435059,17.404144287109375,10.723967552185059,17.001068115234375L10.723967552185059,10.999482154846191C10.722502708435059,10.596405982971191,10.396330833435059,10.270112037658691,9.993742942810059,10.268647193908691Z" style="display: inline; stroke-linecap: round; stroke-linejoin: round; fill: rgb(0, 0, 0); fill-opacity: 1;"/></g></g><g id="shape-99ce6fa3-641d-80f7-8006-518388395d9b" style="opacity: 1;"><g class="fills" id="fills-99ce6fa3-641d-80f7-8006-518388395d9b"><path d="M13.991545677185059,10.268647193908691C13.588957786560059,10.270112037658691,13.262785911560059,10.596405982971191,13.261321067810059,10.999482154846191L13.261321067810059,17.001068115234375C13.262785911560059,17.404144287109375,13.588957786560059,17.730438232421875,13.991545677185059,17.731903076171875C14.394377708435059,17.730438232421875,14.720549583435059,17.404144287109375,14.722014427185059,17.001068115234375L14.722014427185059,10.999482154846191C14.720549583435059,10.596405982971191,14.394377708435059,10.270112037658691,13.991545677185059,10.268647193908691Z" style="display: inline; stroke-linecap: round; stroke-linejoin: round; fill: rgb(0, 0, 0); fill-opacity: 1;"/></g></g></g></g></g></g></g></g></g></svg>

<svg fill="none" viewBox="0 0 24 24"><g class="frame-container-wrapper"><g class="frame-container-blur"><g class="frame-container-shadows"><g class="fills"><rect width="24" height="24" class="frame-background" rx="0" ry="0"/></g><g fill="#000" class="frame-children"><path d="M7.9952 2.2674a.7333.7333 0 0 0-.73.7305v3.2775h-4.559c-.3965.0037-.7166.3259-.7164.7226-.0002.3967.3199.7207.7163.7246H4.248L4.2325 21.01c-.001.3999.3245.7235.7241.7226h14.0442a.7202.7202 0 0 0 .7222-.7226l.0154-13.2873h1.5478c.3992.0001.7241-.325.7241-.7246s-.325-.7229-.724-.7226h-4.565V2.9979a.7334.7334 0 0 0-.73-.7305Zm.73 1.4688h6.5361v2.5392H8.7252Zm-3.033 3.9864h12.6001l-.0156 12.5705H5.6786Z" class="fills"/><path d="M9.9937 10.2686a.7333.7333 0 0 0-.7304.7309v6.0016a.7333.7333 0 0 0 .7304.7308.7332.7332 0 0 0 .7303-.7308v-6.0016a.7332.7332 0 0 0-.7303-.7309ZM13.9915 10.2686a.7332.7332 0 0 0-.7302.7309v6.0016a.7332.7332 0 0 0 .7302.7308.7333.7333 0 0 0 .7305-.7308v-6.0016a.7333.7333 0 0 0-.7305-.7309Z" class="fills"/></g></g></g></g></svg>
